fs/caret_up_20_regular.svg

<svg viewBox="0 0 20 20" fill="none" xmlns="http://www.w3.org/2000/svg" height="1em" width="1em">
  <path d="M5.01887 12.2799C4.49064 12.9339 4.95612 13.9082 5.79681 13.9082H14.2037C15.0444 13.9082 15.5098 12.9339 14.9816 12.2799L11.1672 7.5572C10.5668 6.81387 9.43371 6.81387 8.83333 7.5572L5.01887 12.2799ZM14.2037 12.9082L5.79681 12.9082L9.61127 8.18554C9.81139 7.93776 10.1891 7.93776 10.3892 8.18554L14.2037 12.9082Z" fill="#212121"/>
</svg>

<svg viewBox="0 0 20 20" fill="none" xmlns="http://www.w3.org/2000/svg" height="1em" width="1em">
  <path d="M5.019 12.28a1 1 0 0 0 .778 1.628h8.407a1 1 0 0 0 .778-1.628l-3.815-4.723a1.5 1.5 0 0 0-2.334 0L5.02 12.28Zm9.185.628H5.797L9.61 8.186a.5.5 0 0 1 .778 0l3.815 4.722Z" fill="#212121"/>
</svg>
